svg/python.svg

<svg viewBox="0 0 20 20" xmlns="http://www.w3.org/2000/svg">
  <rect width="100%" height="100%" fill="white"/>
  <path d="M9.90611 1.99992C9.29481 2.00067 8.68466 2.05285 8.08211 2.15592C6.46611 2.44192 6.17411 3.03792 6.17411 4.13992V5.59992H10.0001V6.07992H4.74011C3.63211 6.07992 2.66011 6.74592 2.35611 8.01392C2.00011 9.46792 2.00011 10.3759 2.35611 11.8939C2.62811 13.0239 3.27611 13.8299 4.38411 13.8299H5.69811V12.0859C5.71197 11.4591 5.96796 10.862 6.41241 10.4198C6.85686 9.97759 7.45524 9.72462 8.08211 9.71392H11.8941C12.1467 9.71183 12.3964 9.65997 12.6289 9.56132C12.8614 9.46267 13.0722 9.31915 13.2492 9.13898C13.4262 8.9588 13.566 8.7455 13.6605 8.51128C13.7551 8.27705 13.8025 8.02649 13.8001 7.77392V4.13992C13.8001 3.10592 12.9281 2.32792 11.8921 2.15592C11.2356 2.04862 10.5713 1.99644 9.90611 1.99992V1.99992ZM7.84211 3.16992C7.9865 3.16754 8.12833 3.20815 8.24957 3.2866C8.37081 3.36504 8.46599 3.47777 8.52299 3.61045C8.57999 3.74313 8.59625 3.88977 8.56969 4.03171C8.54313 4.17365 8.47496 4.30449 8.37384 4.40759C8.27272 4.51068 8.14323 4.58137 8.00183 4.61068C7.86043 4.63998 7.7135 4.62656 7.57975 4.57214C7.44599 4.51772 7.33143 4.42475 7.25066 4.30504C7.16988 4.18534 7.12653 4.04432 7.12611 3.89992C7.12451 3.70824 7.19899 3.52376 7.33321 3.38691C7.46743 3.25006 7.65044 3.17203 7.84211 3.16992V3.16992Z" fill="url(#paint0_linear_474_152)"/>
  <path d="M14.2781 6.08008V7.77408C14.2726 8.40858 14.0209 9.01615 13.5762 9.46873C13.1315 9.9213 12.5284 10.1835 11.8941 10.2001H8.08207C7.57378 10.2105 7.0897 10.4193 6.73321 10.7817C6.37671 11.1442 6.17605 11.6317 6.17407 12.1401V15.7701C6.17407 16.8041 7.07207 17.4121 8.08207 17.7081C9.32299 18.0969 10.6532 18.0969 11.8941 17.7081C12.8561 17.4301 13.8001 16.8701 13.8001 15.7701V14.3141H10.0001V13.8301H15.7121C16.8201 13.8301 17.2341 13.0561 17.6201 11.8941C18.0201 10.6941 18.0021 9.54808 17.6201 8.01408C17.3461 6.91008 16.8201 6.08008 15.7121 6.08008H14.2781ZM12.1341 15.2801C12.2786 15.2777 12.4206 15.3184 12.542 15.397C12.6633 15.4756 12.7585 15.5886 12.8153 15.7215C12.8722 15.8544 12.8883 16.0013 12.8614 16.1433C12.8345 16.2854 12.7659 16.4162 12.6644 16.5192C12.5629 16.6221 12.433 16.6925 12.2913 16.7213C12.1497 16.7502 12.0026 16.7362 11.8689 16.6812C11.7352 16.6261 11.621 16.5325 11.5407 16.4123C11.4604 16.2921 11.4177 16.1507 11.4181 16.0061C11.4175 15.8155 11.4926 15.6324 11.6268 15.4971C11.7611 15.3617 11.9435 15.2851 12.1341 15.2841V15.2801Z" fill="url(#paint1_linear_474_152)"/>
  <defs>
  <linearGradient id="paint0_linear_474_152" x1="1.63067" y1="2.55024" x2="10.4524" y2="10.0065" gradientUnits="userSpaceOnUse">
  <stop stop-color="#5A9FD4"/>
  <stop offset="1" stop-color="#306998"/>
  </linearGradient>
  <linearGradient id="paint1_linear_474_152" x1="13.6818" y1="14.7678" x2="10.5046" y2="10.352" gradientUnits="userSpaceOnUse">
  <stop stop-color="#FFD43B"/>
  <stop offset="1" stop-color="#FFE873"/>
  </linearGradient>
  <clipPath id="clip0_474_152">
  <rect width="20" height="20" fill="white"/>
  </clipPath>
  </defs>
</svg>

<svg xmlns="http://www.w3.org/2000/svg" viewBox="0 0 20 20">
  <rect width="100%" height="100%" fill="#5A9FD4"/>
  <path fill="#fff" d="M9.9 2c-.6 0-1.22.05-1.82.16-1.61.28-1.9.88-1.9 1.98V5.6H10v.48H4.74c-1.1 0-2.08.67-2.38 1.93a7.18 7.18 0 0 0 0 3.88c.27 1.13.92 1.94 2.02 1.94H5.7v-1.74A2.43 2.43 0 0 1 8.08 9.7h3.81a1.92 1.92 0 0 0 1.91-1.94V4.14c0-1.03-.87-1.81-1.9-1.98-.66-.11-1.33-.16-2-.16ZM7.85 3.17a.73.73 0 1 1 .03 1.46.73.73 0 0 1-.03-1.46Z"/>
  <path fill="#fff" d="M14.28 6.08v1.7a2.45 2.45 0 0 1-2.39 2.42H8.1a1.95 1.95 0 0 0-1.92 1.94v3.63c0 1.03.9 1.64 1.91 1.94 1.24.39 2.57.39 3.81 0 .97-.28 1.91-.84 1.91-1.94v-1.46H10v-.48h5.71c1.11 0 1.52-.77 1.91-1.94.4-1.2.38-2.34 0-3.88-.27-1.1-.8-1.93-1.9-1.93h-1.44Zm-2.15 9.2a.73.73 0 1 1-.5.22.72.72 0 0 1 .5-.22Z"/>
</svg>
